X:1
T:The Angels’ Hymn
T:The Angels’ Hymn
T:John David Brunk
T:John Walter Wayland, 1916
T:Public Domain Courtesy of the Cyber Hymnal™
C:John David Brunk
Z:Public Domain
Z:Courtesy of the Cyber Hymnal™
%%score ( 1 2 ) ( 3 4 )
L:1/8
Q:1/4=105
M:4/4
K:G
V:1 treble 
V:2 treble 
V:3 bass 
V:4 bass 
V:1
 [Gd]2 [GB]2 | [Gd]2 [GB]2 (GF) (GA) | [GB]2 [GB]2 [Fc]2 [FA]2 | [DF]2 D2 (GA) (Bc) | %4
w: 1.~Fear not,|fear not, O * ye *|shep- herds, Ra- ther|give ye thanks * and *|
w: 2.~For in|yon- der town * of *|Da- vid— Seek ye|there with one * ac- *|
w: 3.~This the|sign by which * to *|know Him, Seek ye,|then, be not * a- *|
 [Gd]4 [Gd]2 [GB]2 | (ed) (cB) [DA]2 [EG]2 | [FA]2 [DF]2 ([DG][FA]) (Bc) | [Gd]2 D2 [DB]2 [CA]2 | %8
w: sing, for to|you * and * to all|peo- ple Tid- * ings *|of great joy I|
w: cord— There is|born * to * you a|Sav- ior Which * is *|ev- en Christ the|
w: fraid— Ye shall|find * a * babe in|Beth- l’em, In * a *|low- ly man- ger|
 [B,G]6 z2 ||"^Refrain" z4 [GB][GB][GB][GB] | [Ac]2 [Ac]2 z4 | z4 [Fc]2 [Fc]2 | %12
w: bring.|“Glo- ry in the|high- est!|Praise in-|
w: Lord.||||
w: laid.||||
 [GB][GB][GB][GB] [GB]4 | [Gd]2 [GB]2 [Gd][Fc][GB][DA] | [EG]2 !fermata![Ge]4 [Ed]>[Ec] | %15
w: crease, let praise in- crease!”|||
w: |||
w: |||
 [DB]2 [B,D]2 [DB]2 [CA]2 | !fermata![B,G]4 |] %17
w: ||
w: ||
w: ||
V:2
 x4 | x4 D2 D2 | x8 | x2 D2 D2 D2 | x8 | G2 F2 x4 | x6 G2 | x2 D2 x4 | x8 || x8 | x8 | x8 | x8 | %13
 x8 | x8 | x8 | x4 |] %17
V:3
 [G,B,]2 [G,D]2 | [G,B,]2 [G,D]2 [G,B,]2 [G,B,]2 | [G,D]2 [G,D]2 [D,D]2 [F,D]2 | %3
w: ~ ~|~ ~ ~ ~|~ ~ ~ ~|
 [A,D]2 [A,C]2 [G,B,]2 [G,B,]2 | [G,B,]4 [G,B,]2 [G,D]2 | C[B,D] D2 [F,=C]2 [E,^C]2 | %6
w: ~ ~ ~ ~|~ ~ ~|~ ~ ~ ~ ~|
 [D,D]2 [C,D]2 D2 D2 | [B,D]2 [G,B,]2 [D,G,]2 [D,F,]2 | G,6 z2 || G,2 D,2 [G,D][G,D][E,D][D,D] | %10
w: ~ ~ ~ ~|~ ~ ~ ~|“Glo-|ry, glo- ry in the high-|
 [F,D]2 [F,D]2 z2 D,>D, | A,2 F,2 [E,D]2 [D,D]2 | (DDDD D4) | [B,D]2 [G,D]2 B,[A,D][G,D][F,D] | %14
w: est! Un- to God|let praise in- crease!|Glo- * * * *|ry, glo- ry in the high-|
 [E,B,]2 [CE]4 [C,B,]>[C,A,] | [D,G,]2 [D,G,]2 [D,G,]2 [D,F,]2 | G,4 |] %17
w: est! Un- to men|good- will and peace!”||
V:4
 x4 | x8 | x8 | x8 | x8 | (^CA,G,) x5 | x4 (B,,D,) (G,A,) | x8 | G,6 x2 || x8 | x8 | x8 | x8 | %13
 x4 B, x3 | x8 | x8 | G,4 |] %17

